Numix/16/emotes/face-hug-right.svg

<?xml version="1.0" encoding="UTF-8" standalone="no"?>
<svg
   xmlns:dc="http://purl.org/dc/elements/1.1/"
   xmlns:cc="http://creativecommons.org/ns#"
   xmlns:rdf="http://www.w3.org/1999/02/22-rdf-syntax-ns#"
   xmlns:svg="http://www.w3.org/2000/svg"
   xmlns="http://www.w3.org/2000/svg"
   xmlns:sodipodi="http://sodipodi.sourceforge.net/DTD/sodipodi-0.dtd"
   xmlns:inkscape="http://www.inkscape.org/namespaces/inkscape"
   width="16px"
   height="16px"
   viewBox="0 0 12 12"
   version="1.1"
   id="svg2872"
   inkscape:version="0.91 r"
   sodipodi:docname="face-hug-right.svg">
  <metadata
     id="metadata2891">
    <rdf:RDF>
      <cc:Work
         rdf:about="">
        <dc:format>image/svg+xml</dc:format>
        <dc:type
           rdf:resource="http://purl.org/dc/dcmitype/StillImage" />
      </cc:Work>
    </rdf:RDF>
  </metadata>
  <defs
     id="defs2889" />
  <sodipodi:namedview
     pagecolor="#ffffff"
     bordercolor="#666666"
     borderopacity="1"
     objecttolerance="10"
     gridtolerance="10"
     guidetolerance="10"
     inkscape:pageopacity="0"
     inkscape:pageshadow="2"
     inkscape:window-width="640"
     inkscape:window-height="480"
     id="namedview2887" />
  <g
     id="surface1">
    <path
       style=" stroke:none;fill-rule:nonzero;fill:rgb(81.176471%,61.960784%,0%);fill-opacity:1;"
       d="M 2.25 6 C 2.25 5.691406 1.746094 5.4375 1.125 5.4375 C 0.503906 5.4375 0 5.691406 0 6 C 0 6.308594 0.503906 6.5625 1.125 6.5625 C 1.746094 6.5625 2.25 6.308594 2.25 6 Z M 2.25 6 "
       id="path2875" />
    <path
       style=" stroke:none;fill-rule:nonzero;fill:rgb(100%,85.098039%,36.078431%);fill-opacity:1;"
       d="M 0.75 6 C 0.75 8.484375 3.101562 10.5 6 10.5 C 8.898438 10.5 11.25 8.484375 11.25 6 C 11.25 3.515625 8.902344 1.5 6 1.5 C 3.097656 1.5 0.75 3.515625 0.75 6 Z M 0.75 6 "
       id="path2877" />
    <path
       style=" stroke:none;fill-rule:nonzero;fill:rgb(38.823529%,38.823529%,38.823529%);fill-opacity:1;"
       d="M 6.421875 4.5 C 6.863281 4.5 7.21875 4.855469 7.21875 5.296875 C 7.21875 5.375 7.207031 5.457031 7.179688 5.535156 C 7.078125 5.203125 6.769531 4.976562 6.421875 4.976562 C 6.074219 4.976562 5.765625 5.203125 5.664062 5.535156 C 5.636719 5.457031 5.625 5.378906 5.625 5.296875 C 5.625 4.855469 5.980469 4.5 6.421875 4.5 Z M 6.421875 4.5 "
       id="path2879" />
    <path
       style=" stroke:none;fill-rule:nonzero;fill:rgb(38.823529%,38.823529%,38.823529%);fill-opacity:1;"
       d="M 6.75 7.125 C 6.5625 8.066406 5.613281 8.71875 4.5 8.71875 C 3.382812 8.71875 2.433594 8.066406 2.25 7.125 L 2.625 7.125 C 2.761719 7.6875 3.527344 8.066406 4.5 8.066406 C 5.46875 8.066406 6.238281 7.6875 6.375 7.125 Z M 6.75 7.125 "
       id="path2881" />
    <path
       style=" stroke:none;fill-rule:nonzero;fill:rgb(38.823529%,38.823529%,38.823529%);fill-opacity:1;"
       d="M 2.578125 4.5 C 3.019531 4.5 3.375 4.855469 3.375 5.296875 C 3.375 5.375 3.363281 5.457031 3.335938 5.535156 C 3.234375 5.203125 2.925781 4.976562 2.578125 4.976562 C 2.230469 4.976562 1.921875 5.203125 1.820312 5.535156 C 1.792969 5.457031 1.78125 5.378906 1.78125 5.296875 C 1.78125 4.855469 2.136719 4.5 2.578125 4.5 Z M 2.578125 4.5 "
       id="path2883" />
    <path
       style=" stroke:none;fill-rule:nonzero;fill:rgb(81.176471%,61.960784%,0%);fill-opacity:1;"
       d="M 10.25 6.5625 C 10.25 6.253906 9.746094 6 9.125 6 C 8.503906 6 8 6.253906 8 6.5625 C 8 6.871094 8.503906 7.125 9.125 7.125 C 9.746094 7.125 10.25 6.871094 10.25 6.5625 Z M 10.25 6.5625 "
       id="path2885" />
  </g>
</svg>

<svg xmlns="http://www.w3.org/2000/svg" width="16" height="16" viewBox="0 0 12 12">
 <g>
  <path d="m 2.25 6 c 0 -0.309 -0.504 -0.563 -1.125 -0.563 c -0.621 0 -1.125 0.254 -1.125 0.563 c 0 0.309 0.504 0.563 1.125 0.563 c 0.621 0 1.125 -0.254 1.125 -0.563 m 0 0" style="fill:#cf9d00;fill-opacity:1;stroke:none;fill-rule:nonzero"/>
  <path d="m 0.75 6 c 0 2.484 2.352 4.5 5.25 4.5 c 2.898 0 5.25 -2.02 5.25 -4.5 c 0 -2.484 -2.348 -4.5 -5.25 -4.5 c -2.902 0 -5.25 2.02 -5.25 4.5 m 0 0" style="fill:#ffd85b;fill-opacity:1;stroke:none;fill-rule:nonzero"/>
  <path d="m 6.422 4.5 c 0.441 0 0.797 0.355 0.797 0.797 c 0 0.078 -0.012 0.16 -0.039 0.238 c -0.102 -0.332 -0.41 -0.559 -0.758 -0.559 c -0.348 0 -0.656 0.227 -0.758 0.559 c -0.027 -0.078 -0.039 -0.156 -0.039 -0.238 c 0 -0.441 0.355 -0.797 0.797 -0.797 m 0 0" style="fill:#626262;fill-opacity:1;stroke:none;fill-rule:nonzero"/>
  <path d="m 6.75 7.125 c -0.188 0.941 -1.137 1.594 -2.25 1.594 c -1.117 0 -2.066 -0.652 -2.25 -1.594 l 0.375 0 c 0.137 0.563 0.902 0.941 1.875 0.941 c 0.969 0 1.738 -0.379 1.875 -0.941 m 0.375 0" style="fill:#626262;fill-opacity:1;stroke:none;fill-rule:nonzero"/>
  <path d="m 2.578 4.5 c 0.441 0 0.797 0.355 0.797 0.797 c 0 0.078 -0.012 0.16 -0.039 0.238 c -0.102 -0.332 -0.41 -0.559 -0.758 -0.559 c -0.348 0 -0.656 0.227 -0.758 0.559 c -0.027 -0.078 -0.039 -0.156 -0.039 -0.238 c 0 -0.441 0.355 -0.797 0.797 -0.797 m 0 0" style="fill:#626262;fill-opacity:1;stroke:none;fill-rule:nonzero"/>
  <path d="m 10.25 6.563 c 0 -0.309 -0.504 -0.563 -1.125 -0.563 c -0.621 0 -1.125 0.254 -1.125 0.563 c 0 0.309 0.504 0.563 1.125 0.563 c 0.621 0 1.125 -0.254 1.125 -0.563 m 0 0" style="fill:#cf9d00;fill-opacity:1;stroke:none;fill-rule:nonzero"/>
 </g>
</svg>
